www/assets/images/test_icons/flags/GB.svg

<svg width="21" height="15" viewBox="0 0 21 15" fill="none" xmlns="http://www.w3.org/2000/svg">
<mask id="mask0_3_150" style="mask-type:alpha" maskUnits="userSpaceOnUse" x="0" y="0" width="21" height="15">
<path d="M19 0H2C0.89543 0 0 0.89543 0 2V13C0 14.1046 0.89543 15 2 15H19C20.1046 15 21 14.1046 21 13V2C21 0.89543 20.1046 0 19 0Z" fill="white"/>
</mask>
<g mask="url(#mask0_3_150)">
<path d="M19 0H2C0.89543 0 0 0.89543 0 2V13C0 14.1046 0.89543 15 2 15H19C20.1046 15 21 14.1046 21 13V2C21 0.89543 20.1046 0 19 0Z" fill="#22438B"/>
<path fill-rule="evenodd" clip-rule="evenodd" d="M3 1L0.973999 1.026L0.999999 3L17.982 14.028L20.019 13.991L19.981 12.029L3 1Z" fill="white"/>
<path fill-rule="evenodd" clip-rule="evenodd" d="M2 1L1 2L19 14L20 13L2 1Z" fill="#C7152A"/>
<path fill-rule="evenodd" clip-rule="evenodd" d="M18 1H20V3C20 3 8.24999 10.396 3.01799 14.028C2.95499 14.072 1.01999 14.031 1.01999 14.031L0.86499 12.13L18 1Z" fill="white"/>
<path fill-rule="evenodd" clip-rule="evenodd" d="M19.043 0.972L20 2L2 14L1 13L19.043 0.972Z" fill="#C7152A"/>
<path fill-rule="evenodd" clip-rule="evenodd" d="M8 1H13V5H20V10H13V14H8V10H1V5H8V1Z" fill="white"/>
<path fill-rule="evenodd" clip-rule="evenodd" d="M9 1H12V6H20V9H12V14H9V9H1V6H9V1Z" fill="#C7152A"/>
<path d="M19 0.5H2C1.17157 0.5 0.5 1.17157 0.5 2V13C0.5 13.8284 1.17157 14.5 2 14.5H19C19.8284 14.5 20.5 13.8284 20.5 13V2C20.5 1.17157 19.8284 0.5 19 0.5Z" stroke="black" stroke-opacity="0.1"/>
</g>
</svg>

<svg fill="none" height="15" viewBox="0 0 21 15" width="21" xmlns="http://www.w3.org/2000/svg" xmlns:xlink="http://www.w3.org/1999/xlink"><mask id="a" height="15" maskUnits="userSpaceOnUse" width="21" x="0" y="0"><path d="m19 0h-17c-1.10457 0-2 .89543-2 2v11c0 1.1046.89543 2 2 2h17c1.1046 0 2-.8954 2-2v-11c0-1.10457-.8954-2-2-2z" fill="#fff"/></mask><g mask="url(#a)"><path d="m19 0h-17c-1.10457 0-2 .89543-2 2v11c0 1.1046.89543 2 2 2h17c1.1046 0 2-.8954 2-2v-11c0-1.10457-.8954-2-2-2z" fill="#22438b"/><g clip-rule="evenodd" fill-rule="evenodd"><path d="m3 1-2.026001.026.026 1.974 16.982001 11.028 2.037-.037-.038-1.962z" fill="#fff"/><path d="m2 1-1 1 18 12 1-1z" fill="#c7152a"/><path d="m18 1h2v2s-11.75001 7.396-16.98201 11.028c-.063.044-1.998.003-1.998.003l-.155-1.901z" fill="#fff"/><path d="m19.043.972.957 1.028-18 12-1-1z" fill="#c7152a"/><path d="m8 1h5v4h7v5h-7v4h-5v-4h-7v-5h7z" fill="#fff"/><path d="m9 1h3v5h8v3h-8v5h-3v-5h-8v-3h8z" fill="#c7152a"/></g><path d="m19 .5h-17c-.82843 0-1.5.67157-1.5 1.5v11c0 .8284.67157 1.5 1.5 1.5h17c.8284 0 1.5-.6716 1.5-1.5v-11c0-.82843-.6716-1.5-1.5-1.5z" stroke="#000" stroke-opacity=".1"/></g></svg>
